Sources/FrostedUI/Resources/Icons.xcassets/cubeFilled20.imageset/cube-filled-20.svg

<svg
  width="20"
  height="20"
  viewBox="0 0 20 20"
  fill="none"
  xmlns="http://www.w3.org/2000/svg"
  data-fui-icon="true"
>
  <path
    d="M9.29688 1.46094C9.71875 1.32031 10.2461 1.32031 10.668 1.46094L17.6992 4.13281C18.4727 4.41406 19 5.15234 19 5.99609V14.5391C19 15.3828 18.4727 16.0859 17.6992 16.4023L10.668 19.0742C10.2461 19.2148 9.71875 19.2148 9.29688 19.0742L2.26562 16.4023C1.49219 16.0859 1 15.3828 1 14.5391V5.99609C1 5.15234 1.49219 4.41406 2.26562 4.13281L9.29688 1.46094ZM10.0703 3.04297C10.0352 3.04297 9.92969 3.04297 9.89453 3.04297L3.21484 5.57422L10 8.24609L16.75 5.57422L10.0703 3.04297ZM2.86328 14.8203L9.15625 17.2109V9.72266L2.6875 7.19141V14.5391C2.6875 14.6797 2.75781 14.7852 2.86328 14.8203ZM10.8438 17.2109L17.1016 14.8203C17.207 14.7852 17.3125 14.6797 17.3125 14.5391V7.19141L10.8438 9.72266V17.2109Z"
    fill="currentColor"
  />
</svg>

<svg xmlns="http://www.w3.org/2000/svg" width="20" height="20" fill="none" data-fui-icon="true" viewBox="0 0 20 20"><path fill="currentColor" d="M9.297 1.46c.422-.14.95-.14 1.371 0l7.031 2.673A1.98 1.98 0 0 1 19 5.996v8.543c0 .844-.527 1.547-1.3 1.863l-7.032 2.672c-.422.14-.95.14-1.371 0l-7.031-2.672C1.492 16.086 1 15.382 1 14.54V5.996c0-.844.492-1.582 1.266-1.863zm.773 1.583h-.175l-6.68 2.531L10 8.246l6.75-2.672zM2.863 14.82l6.293 2.39V9.724L2.687 7.19v7.348c0 .14.07.246.176.281m7.98 2.39 6.259-2.39a.31.31 0 0 0 .21-.28V7.19l-6.468 2.532z"/></svg>
